X:0704
T:Ye'll Aye be Welcome Back Again
P:Ye'll Aye be Welcome Back Again
C:Bremner 1759
R:Strathspey (8x32)
B:RSCDS 7-4
Z:Anselm Lingnau <anselm@strathspey.org>
M:C
L:1/8
K:D
D|"D"D>F A>B A<F A>B|D>F d>B A<F E>F|\
  "D"D>F A>B A>B d>e|f>d "A"e>f "D"d/d/d d D|
  "D"D>F A>B A<F A>B|D>F d>B A<F E>F|\
  "D"D>F A>B A>B d>e|f>d "A"e>f "D"d/d/d d||
g|"D"f<d d>f "G"g>f e>d|"A"c<A e<A "D"f<A "A"e>g|\
  "D"f<d d>f "G"g>f e>d|"A"c>d e>f "D"d/d/d d>g|
  "D"f<d de/f/ "G"g>f e>d|"A"c<A e<A "D"f<A "A"e>g|\
  "D"f<d "G"g<e "D/F#"a<f "G"b>g|"D"f>d "A7"e>f "D"d/d/d d|]
